X:1
T:Doppo tanti
T:Doppo tanti
T:Giovanni Croce Chiozzotto
T:Source : Canzonette a 3 voci---Libro primo---Venetia---G.Vincenti---1601. Editor : André Vierendeels (13/11/14).
C:Giovanni Croce Chiozzotto
%%score [ 1 2 3 ]
L:1/8
Q:1/4=120
M:4/4
K:C
V:1 treble nm="Canto 1" snm="C 1"
V:2 treble nm="Canto 2" snm="C 2"
V:3 bass nm="Basso" snm="B"
V:1
 e2 e2 e4 | e2 e2 f4 | e8 | z2 e2 e2 e2 | d8- | d4 A4 | c4 B4 :: z2 e2 g2 f2 | e2 e2 d4 | %9
w: Dop- po tan-|ti tor- men-|ti,|e tan- te|pe-|* n'e|gua- i,|nel col- mo|de' con- ten-|
w: Dop- po tan-|ti ru- i-|ne,|dop- po si'ac-|cer|_ bi'af-|fan- ni,|hor che son|gion- te'al fi-|
w: Dop- po si|lun- ghi gi-|ri,|dop- po tan-|t'as-|* pre|not- ti,|ho- ra ch'i|miei mar- ti-|
 d2 d2 d2 d2 | d2 c2 B4 | c8 | z2 c2 e4- | e2 e2 d2 d2 | e8 | d2 d2 d3 e | c3 d B3 A | A2 c2 B4 | %18
w: ti u giun- ger|non spe- ra-|i,-|||||||
w: ne de' miei pen-|no- si dan-|ni,|io sa-|* cro dol- ce'A-|mo-|re, qual vit- ti-|m'al tuo tem- pio|que- sto co-|
w: ri, al fin so-|no con- dot-|ti,|||||||
 A8 :| %19
w: |
w: re.|
w: |
V:2
 c2 c2 c4 | B2 c2 d4 | c2 c2 c2 c2 | B8- | B4 A4 | A8- | A4 ^G4 :: z2 c2 e2 d2 | c2 c2 B4 | %9
w: Dop- po tan-|ti tor- men-|ti, e tan- te|pe-|* n'e|gua-|* i,|nel- col- mo|de' con- ten-|
w: Dop- po tan-|ti ru- i-|ne, dop- po si'ac-|cer-|* bi'af-|fan-|* ni,|hor che son|gion- te'al fi-|
w: Dop- po si|lun- ghi gi-|ri, dop- po tan-|t'as-|* pre|not-|* ti,|ho- ra ch'i|miei mar- ti-|
 B2 B2 B2 A2 | B2 A2 ^G4 | A8 | z2 A2 c4- | c2 B2 A2 B2 | c8 | B2 B2 B3 c | A3 B ^G3 A | %17
w: ti- u giun- ger|non spe- ra-|i,||||||
w: ne de' miei pen-|no- si dan-|ni,|io sa-|* cro dol- ce'A-|mo-|re, qual vit- ti-|m'al tuo tem- pio|
w: ri, al fin so-|no con- dot-|ti,||||||
 ^F2 A2 ^G4 | A8 :| %19
w: ||
w: que- sto co-|re.|
w: ||
V:3
 A,2 A,2 A,4 | ^G,2 A,2 D,4 | A,2 A,2 A,2 A,2 | G,8- | G,4 D,4 | F,8 | E,8 :: z2 C,2 C,2 D,2 | %8
w: Dop- po tan-|ti tor- men-|ti, e tan- te|pe-|* n'e|gua-|i,|nel col- mo|
w: Dop- po tan-|ti ru- i-|ne, dop- po si'ac-|cer-|* bi'af-|fan-|ni,|hor che son|
w: Dop- po si|lun- ghi gi-|ri, dop- po tan-|t'as-|* pre|not-|ti,|ho- ra ch'i|
 E,2 F,2 G,4 | G,2 G,2 G,2 ^F,2 | G,2 A,2 E,4 | A,,8 | z2 A,2 A,4- | A,2 E,2 F,2 G,2 | C,8 | %15
w: de' con- ten-|ti u giun- ger|non spe- ra-|i,||||
w: gion- te'al fi-|ne de' miei pen-|no- si dan-|ni,|io sa-|* cro dol- ce'A-|mo-|
w: miei mar- ti-|ri, al fin so-|no con- dot-|ti,||||
 G,2 G,2 G,3 E, | F,3 D, E,3 ^C, | D,2 A,,2 E,4 | A,,8 :| %19
w: ||||
w: re, qual vit- i-|m'al tuo tem- pio|qu- sto co-|re.|
w: ||||

